X: 151
T: REEL: Rolling in the Ryegrass
C: C: Trad.; S: Various
C: Set Leaders: Oleg, Anton, Mars, Tania
Z: Oleg arr.; Connor Hickey at The Session
N: https://thesession.org/members/26966/sets/99683
R: Reel
M: 4/4
L: 1/8
Q: 1/2=100
K: Dmaj
ABAF DFAF|G2BG dGBG|ABAF DFAF|GBAF E2 D2:||
|:ABde f2 fd|g2ge fedB|ABde f2df|afdf e2 d2:||

